svg/surround_sound_2_0.svg

<svg xmlns="http://www.w3.org/2000/svg" viewBox="0 0 24 24"><path d="M17 7h2a2 2 0 0 1 2 2v6a2 2 0 0 1-2 2h-2a2 2 0 0 1-2-2V9a2 2 0 0 1 2-2m0 2v6h2V9zm-8 8H3v-2l4-6H3V7h4a2 2 0 0 1 2 2c0 .42-.13.81-.35 1.13L5.41 15H9zm3 0a1 1 0 0 1-1-1 1 1 0 0 1 1-1 1 1 0 0 1 1 1 1 1 0 0 1-1 1"/></svg>

<?xml version="1.0" encoding="UTF-8"?><!DOCTYPE svg PUBLIC "-//W3C//DTD SVG 1.1//EN" "http://www.w3.org/Graphics/SVG/1.1/DTD/svg11.dtd"><svg xmlns="http://www.w3.org/2000/svg" xmlns:xlink="http://www.w3.org/1999/xlink" version="1.1" id="mdi-surround-sound-2-0" width="24" height="24" viewBox="0 0 24 24"><path d="M17,7H19A2,2 0 0,1 21,9V15A2,2 0 0,1 19,17H17A2,2 0 0,1 15,15V9A2,2 0 0,1 17,7M17,9V15H19V9H17M9,17H3V15L7,9H3V7H7A2,2 0 0,1 9,9C9,9.42 8.87,9.81 8.65,10.13L5.41,15H9V17M12,17A1,1 0 0,1 11,16A1,1 0 0,1 12,15A1,1 0 0,1 13,16A1,1 0 0,1 12,17Z" /></svg>
